X: 11397
T: East Clare, The
R: reel
M: 4/4
K: Ddorian
|:DEFA d2 cA|GEED EFGc|Add^c d2 ed|cAGE EDCE|
DEFA d2 cA|GEED EFGc|Add^c d2 dB|cAGE EDD2:|
|:aged c2 cd|edcd egg2|aged Bc2 c|cAGE EDD2|
edeg aged|c2 cB cAGE|F2 FE FGAB|1 cAGE EDD2:|2 cAGE EDCE||
|:DEFA {^c}d2 =cA|GE{G}ED EFGc|Add^c (cd)ed|cAGE{G} EDCE|DEFA (^cd)=cA|
GE{G}ED EFGc|1 Add^c (cd)dB|cAGE{G} EDD2:|2 Add^c dfed|cAGE{G} EDDa||
|:aged (Bc)cd|edcd e~g3|aged (Bc2) c|cAGE{G} EDD2|edeg ageB|
~c3B cAGE|1 F2 CF (FG)AB|cAGE{G} EDD2:|2 ~F3G AGAB|cAGE{G} EDCE||

